traffic-cone.svg

<svg fill="currentColor" viewBox="0 0 24 24"><path d="m17 15 1 4h3v3H3v-3h3l1-4zm-2-7 1 4H8l1-4zm-2-7 1 4h-4l1-4z"/></svg>

<svg  viewBox="0 0 24 24" fill="currentColor"><path  d="M17 15L18 19H21V22H3V19H6L7 15H17M15 8L16 12H8L9 8H15M13 1L14 5H10L11 1H13Z"/></svg>
